X:27
T:Sorley's Jig
R:jig
C:Paul S. Cranford
O:Cape Breton Island
S:http://www.cranfordpub.com
D:currently unrecorded
B:currently unpublished in book form
Z:psc, (re-formatted,updated 9/17/04)
N:
H:                                                        copyrights Cranford Publications, SOCAN
L:1/8
Q:300
M:6/8
K:Bdor
z|BcB d2 B|ABA FGA|BcB dcB|ece fec|
BcB d2 B|ABA FGA|[1BFB AGF|EDC B,2 :|[2BFB ABc|eAc B2||
|:b|f2 B d2 B|ABA cde|fBb agf|eAB cBA|
f2 B d2 B|ABA cde|fBb agf|eAc B2:|
